src/images/github-icon.svg

<?xml version="1.0" encoding="UTF-8"?>
<svg width="25px" height="24px" viewBox="0 0 25 24" version="1.1" xmlns="http://www.w3.org/2000/svg" xmlns:xlink="http://www.w3.org/1999/xlink">
    <!-- Generator: Sketch 52.1 (67048) - http://www.bohemiancoding.com/sketch -->
    <title>github-icon</title>
    <desc>Created with Sketch.</desc>
    <defs>
        <polygon id="path-1" points="0 -0.0003 24.43425 -0.0003 24.43425 23.8307767 0 23.8307767"></polygon>
    </defs>
    <g id="Progress" stroke="none" stroke-width="1" fill="none" fill-rule="evenodd">
        <g id="Homepage--/-Layout" transform="translate(-171.000000, -7818.000000)">
            <g id="footer-bottom" transform="translate(0.000000, 7782.000000)">
                <g id="social" transform="translate(123.000000, 36.000000)">
                    <g id="github-icon" transform="translate(48.000000, 0.000000)">
                        <mask id="mask-2" fill="white">
                            <use xlink:href="#path-1"></use>
                        </mask>
                        <g id="Clip-2"></g>
                        <path d="M12.21645,-0.000375 C5.4702,-0.000375 -0.0003,5.470125 -0.0003,12.217875 C-0.0003,17.614875 3.49995,22.194375 8.35545,23.809875 C8.9667,23.921625 9.18945,23.545125 9.18945,23.221125 C9.18945,22.930875 9.17895,22.162875 9.17295,21.142875 C5.7747,21.881625 5.0577,19.505625 5.0577,19.505625 C4.50195,18.094125 3.70095,17.718375 3.70095,17.718375 C2.5917,16.960125 3.78495,16.975875 3.78495,16.975875 C5.0112,17.062125 5.6562,18.234375 5.6562,18.234375 C6.74595,20.101875 8.5152,19.562625 9.21195,19.249875 C9.32295,18.460125 9.63795,17.921625 9.98745,17.616375 C7.2747,17.308125 4.42245,16.260375 4.42245,11.578125 C4.42245,10.244625 4.8987,9.154125 5.6802,8.299875 C5.5542,7.990875 5.13495,6.748875 5.79945,5.067375 C5.79945,5.067375 6.82545,4.738125 9.15945,6.319125 C10.1337,6.048375 11.1792,5.912625 12.21795,5.908125 C13.2552,5.912625 14.3007,6.048375 15.27645,6.319125 C17.60895,4.738125 18.6327,5.067375 18.6327,5.067375 C19.29945,6.748875 18.8802,7.990875 18.7542,8.299875 C19.5372,9.154125 20.01045,10.244625 20.01045,11.578125 C20.01045,16.271625 17.1537,17.304375 14.43195,17.607375 C14.8707,17.983875 15.26145,18.730125 15.26145,19.869375 C15.26145,21.502875 15.24645,22.820625 15.24645,23.221125 C15.24645,23.547375 15.4662,23.927625 16.08645,23.808375 C20.9367,22.189875 24.4347,17.613375 24.4347,12.217875 C24.4347,5.470125 18.9642,-0.000375 12.21645,-0.000375" id="Fill-1" fill="#FEFEFE" mask="url(#mask-2)"></path>
                    </g>
                </g>
            </g>
        </g>
    </g>
</svg>

<svg width="25" height="24" xmlns="http://www.w3.org/2000/svg" xmlns:xlink="http://www.w3.org/1999/xlink"><defs><path id="a" d="M0 0h24.434v23.83H0z"/></defs><g fill="none" fill-rule="evenodd"><mask id="b" fill="#fff"><use xlink:href="#a"/></mask><path d="M12.216 0C5.47 0 0 5.47 0 12.218c0 5.397 3.5 9.976 8.355 11.592.612.112.834-.265.834-.589 0-.29-.01-1.058-.016-2.078-3.398.739-4.115-1.637-4.115-1.637-.556-1.412-1.357-1.788-1.357-1.788-1.11-.758.084-.742.084-.742 1.226.086 1.871 1.258 1.871 1.258 1.09 1.868 2.86 1.329 3.556 1.016.111-.79.426-1.328.775-1.634-2.712-.308-5.565-1.356-5.565-6.038 0-1.333.477-2.424 1.258-3.278-.126-.31-.545-1.551.12-3.233 0 0 1.025-.329 3.36 1.252.974-.27 2.02-.406 3.058-.41 1.037.004 2.083.14 3.058.41 2.333-1.58 3.357-1.252 3.357-1.252.666 1.682.247 2.924.121 3.233.783.854 1.256 1.945 1.256 3.278 0 4.694-2.856 5.726-5.578 6.03.439.376.83 1.122.83 2.261 0 1.634-.016 2.952-.016 3.352 0 .326.22.707.84.587 4.85-1.618 8.349-6.195 8.349-11.59C24.435 5.47 18.965 0 12.216 0" fill="#FEFEFE" mask="url(#b)"/></g></svg>
